public/images/rocks/rock-green.svg

<svg version="1.1" id="Layer_1" xmlns="http://www.w3.org/2000/svg" xmlns:xlink="http://www.w3.org/1999/xlink" x="0px" y="0px"
	 width="100%" viewBox="0 0 505 313" enable-background="new 0 0 505 313" xml:space="preserve">
<path fill="#1E7246" opacity="1.000000" stroke="none"
	d="
M473.250366,114.750053
	C479.204071,119.456520 483.190643,125.149185 486.389099,131.625839
	C490.127319,139.195465 490.274384,147.083496 489.470795,155.116028
	C488.014221,169.676132 481.607971,181.822540 471.975555,192.787994
	C460.671600,205.656372 450.546082,219.566086 439.139038,232.335953
	C428.952271,243.739731 416.709015,253.173111 402.150726,258.105225
	C391.625092,261.671173 380.358734,263.521515 369.268524,264.830322
	C355.586884,266.444885 341.754364,266.933411 327.970062,267.480408
	C315.859283,267.960999 303.724548,267.816437 291.601349,268.010040
	C272.380829,268.316956 253.161942,268.869598 233.940796,268.951660
	C218.283981,269.018494 202.625504,268.481476 186.966614,268.332275
	C164.744080,268.120544 142.509521,268.389984 120.301521,267.731232
	C106.995903,267.336578 93.792511,264.640930 81.837738,258.679413
	C73.611366,254.577133 66.258743,248.933426 60.363235,241.291306
	C50.457989,228.451523 39.634445,216.322601 29.307804,203.803406
	C27.222494,201.275360 25.591261,198.365829 23.815594,195.590652
	C19.611835,189.020615 19.321661,182.333878 22.162266,174.976151
	C26.714874,163.184006 29.956905,150.854630 34.964973,139.276627
	C43.198990,120.240639 55.650898,104.289574 74.684273,95.025803
	C84.914330,90.046700 96.039276,86.913902 106.737259,82.886482
	C118.450798,78.476753 130.099594,73.892181 141.851669,69.588837
	C148.008652,67.334305 154.387100,65.686409 160.552475,63.452480
	C165.529831,61.649010 170.231445,59.060112 175.243942,57.383270
	C184.441345,54.306442 193.814667,51.759270 203.044952,48.775677
	C210.994141,46.206188 218.830399,43.289608 226.744492,40.608864
	C247.790573,33.479916 268.990204,26.798508 291.423584,26.086737
	C306.315002,25.614254 321.008301,27.689823 335.133789,32.594860
	C345.710022,36.267418 356.336365,39.946388 366.522278,44.548046
	C375.836975,48.756130 384.686615,54.039726 393.561462,59.160900
	C400.855225,63.369747 408.016144,67.841286 415.000977,72.545288
	C425.091675,79.340958 435.026489,86.372993 444.921783,93.452423
	C453.490875,99.583061 461.918549,105.911690 470.390228,112.177818
	C471.321472,112.866615 472.130890,113.720169 473.250366,114.750053
z"/>
</svg>

<svg viewBox="0 0 505 313" xml:space="preserve" xmlns="http://www.w3.org/2000/svg">
  <path d="M473.25 114.75c5.95 4.7 9.94 10.4 13.14 16.88 3.74 7.57 3.88 15.45 3.08 23.49-1.46 14.56-7.86 26.7-17.5 37.67-11.3 12.87-21.42 26.78-32.83 39.55-10.19 11.4-22.43 20.83-36.99 25.77-10.53 3.56-21.8 5.41-32.88 6.72-13.68 1.61-27.52 2.1-41.3 2.65-12.11.48-24.25.34-36.37.53-19.22.3-38.44.86-57.66.94-15.66.07-31.31-.47-46.97-.62-22.23-.21-44.46.06-66.67-.6-13.3-.4-26.5-3.09-38.46-9.05a61.13 61.13 0 0 1-21.48-17.39c-9.9-12.84-20.73-24.97-31.05-37.49-2.09-2.52-3.72-5.43-5.5-8.21-4.2-6.57-4.49-13.26-1.65-20.61 4.55-11.8 7.8-24.13 12.8-35.7 8.24-19.04 20.7-35 39.72-44.26 10.23-4.97 21.36-8.1 32.06-12.13 11.71-4.41 23.36-9 35.11-13.3 6.16-2.26 12.54-3.9 18.7-6.14 4.98-1.8 9.68-4.4 14.7-6.07 9.2-3.07 18.56-5.62 27.8-8.6 7.94-2.58 15.78-5.5 23.7-8.17 21.04-7.13 42.24-13.81 64.67-14.52 14.9-.48 29.59 1.6 43.71 6.5 10.58 3.68 21.2 7.36 31.4 11.96 9.3 4.2 18.16 9.49 27.03 14.61A365.2 365.2 0 0 1 415 72.54c10.1 6.8 20.03 13.83 29.92 20.91 8.57 6.13 17 12.46 25.47 18.73.93.68 1.74 1.54 2.86 2.57z" fill="#1E7246"/>
</svg>
